svgs/sharp-solid/camera-viewfinder.svg

<svg xmlns="http://www.w3.org/2000/svg" viewBox="0 0 512 512"><!--! Font Awesome Pro 6.6.0 by @fontawesome - https://fontawesome.com License - https://fontawesome.com/license (Commercial License) Copyright 2024 Fonticons, Inc. --><path d="M0 0L0 24 0 136l0 24 48 0 0-24 0-88 88 0 24 0 0-48L136 0 24 0 0 0zM192 96l-12 32-84 0 0 256 320 0 0-256-84 0L320 96 192 96zm64 96a64 64 0 1 1 0 128 64 64 0 1 1 0-128zM488 0L376 0 352 0l0 48 24 0 88 0 0 88 0 24 48 0 0-24 0-112 0-24L488 0zM0 512l24 0 112 0 24 0 0-48-24 0-88 0 0-88 0-24L0 352l0 24L0 488l0 24zm488 0l24 0 0-24 0-112 0-24-48 0 0 24 0 88-88 0-24 0 0 48 24 0 112 0z"/></svg>

<svg xmlns="http://www.w3.org/2000/svg" viewBox="0 0 512 512"><!--! Font Awesome Pro 6.4.2 by @fontawesome - https://fontawesome.com License - https://fontawesome.com/license (Commercial License) Copyright 2023 Fonticons, Inc. --><path d="M0 0V24 136v24H48V136 48h88 24V0H136 24 0zM192 96l-12 32H96V384H416V128H332L320 96H192zm64 96a64 64 0 1 1 0 128 64 64 0 1 1 0-128zM488 0H376 352V48h24 88v88 24h48V136 24 0H488zM0 512H24 136h24V464H136 48V376 352H0v24V488v24zm488 0h24V488 376 352H464v24 88H376 352v48h24H488z"/></svg>
